X:3
T:Und unser liebe Frauen...
B:Frau Nachtigall (Straßburg - 1928)
N:p.20
M:C
L:1/4
Q:1/4=150
K:G
B, | "Em" EEGG | "C" E2 "G" DD | "Em" GG "D" A-A | "G" B2 zB |
"Em" BBBB | "Am" c2 "Em" BB/B/ | "Am" AA "B7" (GF) 
|1 "Em" E2 z :|2 E2 "Em" z B,/ B,/ | "Em" E E/ E/ "B" F F/ F/ |
"Em" G/ F/ G/ "D"A/ "G"B "C"e | "G" d/ c/ B/ "D7"A/ "Em"G "Am"B/ A/ |
"B" G "B7"F/ F/ "Em" HE B, | "Em" E F "Em" G F/>E/ | "Em" B3 |]
W:1. Und unser liebe Frauen vom kalten Bronnen, 
W: bescher' uns armen Landsknecht' eine warme Sonnen,
W: damit wir nicht er frieren, ziehn in des Wirtes Haus 
W: wir ein mit vollem Beutel, mit leerem wieder aus.
@@/ABC@@

